public/piece/california/bQ.svg

<?xml version="1.0" encoding="UTF-8"?>
<svg xmlns="http://www.w3.org/2000/svg" xmlns:xlink="http://www.w3.org/1999/xlink" width="100" height="100" viewBox="-50 -90 498 528" version="1.1">
<g id="surface1" transform="translate(0 -20)">
<path style=" stroke:none;fill-rule:nonzero;fill:rgb(30.195618%,30.195618%,30.195618%);fill-opacity:1;" d="M 319.324219 393 L 88.675781 393 C 93.175781 387.421875 106.421875 369.527344 106.421875 343.5 C 106.421875 336.527344 105.46875 314.820312 88.675781 294 L 319.324219 294 C 314.824219 299.578125 301.582031 317.472656 301.582031 343.5 C 301.582031 350.472656 302.53125 372.179688 319.324219 393 "/>
<path style=" stroke:none;fill-rule:nonzero;fill:rgb(50.196838%,50.196838%,50.196838%);fill-opacity:1;" d="M 140 393 C 143.5625 382.71875 151.433594 367.226562 152 348 C 152.699219 324.203125 143.898438 306.277344 140 295 C 129.320312 295 112.746094 294 102.066406 294 L 117.628906 348 L 92.914062 393 Z M 140 393 "/>
<path style=" stroke:none;fill-rule:nonzero;fill:rgb(0%,0%,0%);fill-opacity:1;" d="M 113.503906 378 L 294.484375 378 C 288.960938 363.984375 287.851562 351.363281 287.851562 343.5 C 287.851562 330.179688 290.679688 318.585938 294.496094 309 L 113.515625 309 C 119.039062 323.015625 120.148438 335.636719 120.148438 343.5 C 120.148438 356.820312 117.320312 368.414062 113.503906 378 M 319.320312 408 L 88.679688 408 C 83.28125 408 78.386719 404.546875 76.167969 399.175781 C 73.945312 393.800781 74.8125 387.507812 78.378906 383.082031 C 83.722656 376.453125 92.691406 362.496094 92.691406 343.5 C 92.691406 335.347656 90.832031 319.359375 78.375 303.914062 C 74.8125 299.492188 73.945312 293.195312 76.167969 287.824219 C 78.386719 282.453125 83.28125 279 88.679688 279 L 319.320312 279 C 324.71875 279 329.613281 282.453125 331.832031 287.824219 C 334.054688 293.199219 333.191406 299.492188 329.621094 303.917969 C 324.277344 310.546875 315.308594 324.503906 315.308594 343.5 C 315.308594 351.652344 317.167969 367.640625 329.621094 383.085938 C 333.191406 387.507812 334.054688 393.804688 331.832031 399.175781 C 329.613281 404.546875 324.71875 408 319.320312 408 "/>
<path style=" stroke:none;fill-rule:nonzero;fill:rgb(30.195618%,30.195618%,30.195618%);fill-opacity:1;" d="M 91.101562 254.300781 L 55.730469 127.332031 C 58.96875 129.28125 106.164062 196.375 129.863281 181.5 C 148.714844 169.667969 144.792969 97.320312 146.339844 69 C 154.636719 95.242188 182.425781 162.75 204 162.75 C 225.574219 162.75 253.363281 95.242188 261.660156 69 C 262.183594 72.230469 253.832031 166.15625 286.371094 181.5 C 304.957031 190.265625 346.253906 129.988281 352.273438 127.332031 C 346.105469 162.539062 323.464844 211.136719 317.300781 254.128906 C 314.019531 277.011719 294.652344 294 271.792969 294 L 136.582031 294 C 113.792969 294 94.441406 277.109375 91.101562 254.300781 "/>
<path style=" stroke:none;fill-rule:nonzero;fill:rgb(50.196838%,50.196838%,50.196838%);fill-opacity:1;" d="M 86.828125 159 C 153 192 93 279 230 279 L 129.972656 294 C 118.78125 283.53125 95.90625 259.226562 86.828125 222 C 80.238281 194.984375 83.628906 172.277344 86.828125 159 "/>
<path style=" stroke:none;fill-rule:nonzero;fill:rgb(0%,0%,0%);fill-opacity:1;" d="M 203.703125 147.773438 Z M 204.296875 147.773438 Z M 122.902344 168.582031 Z M 84.824219 180.261719 L 104.234375 249.933594 C 104.417969 250.589844 104.558594 251.257812 104.65625 251.933594 C 106.917969 267.363281 120.644531 279 136.582031 279 L 271.796875 279 C 287.78125 279 301.515625 267.308594 303.738281 251.808594 C 307.132812 228.152344 314.886719 203.921875 322.640625 180.378906 C 307.742188 194.117188 293.871094 201.375 280.933594 195.269531 C 264.292969 187.425781 253.726562 166.667969 249.515625 133.5625 C 233.488281 163.707031 219.019531 177.75 204 177.75 C 188.921875 177.75 174.40625 163.601562 158.308594 133.230469 C 158.277344 133.167969 158.242188 133.101562 158.210938 133.039062 C 156.144531 163.214844 150.90625 185.59375 136.703125 194.507812 C 132.097656 197.394531 127.265625 198.667969 122.320312 198.667969 C 109.929688 198.667969 96.832031 190.683594 84.824219 180.261719 M 271.796875 309 L 136.582031 309 C 122.457031 309 108.75 303.824219 97.980469 294.421875 C 87.230469 285.042969 80.0625 272.058594 77.714844 257.761719 L 42.597656 131.703125 C 40.96875 125.863281 42.742188 119.53125 47.082031 115.683594 C 51.417969 111.835938 57.457031 111.25 62.347656 114.191406 C 64.976562 115.769531 66.46875 117.597656 71.417969 123.648438 C 77.84375 131.503906 89.808594 146.128906 101.933594 156.75 C 115.402344 168.546875 121.777344 169.0625 122.949219 168.535156 C 123.4375 168.027344 127.523438 163.175781 129.925781 141.46875 C 131.703125 125.375 131.929688 106.113281 132.109375 90.632812 C 132.214844 81.820312 132.300781 74.207031 132.636719 68.105469 C 133.023438 60.960938 137.980469 55.113281 144.472656 54.140625 C 150.957031 53.167969 157.175781 57.335938 159.316406 64.101562 C 163.410156 77.054688 171.667969 98.105469 180.882812 115.925781 C 193.089844 139.535156 201.402344 146.683594 204 147.679688 C 206.597656 146.683594 214.910156 139.535156 227.117188 115.925781 C 236.332031 98.105469 244.589844 77.054688 248.683594 64.101562 C 250.726562 57.640625 256.511719 53.515625 262.746094 54.046875 C 268.980469 54.585938 274.097656 59.667969 275.183594 66.398438 C 275.507812 68.40625 275.449219 69.847656 275.261719 74.621094 C 272.359375 148.035156 285.558594 163.878906 290.953125 167.253906 C 292.488281 166.824219 297.296875 164.816406 307.039062 155.488281 C 315.347656 147.535156 323.703125 137.699219 330.417969 129.792969 C 339.308594 119.324219 342.632812 115.410156 347.128906 113.425781 C 351.789062 111.367188 357.105469 112.257812 360.988281 115.746094 C 364.871094 119.230469 366.699219 124.757812 365.753906 130.152344 C 362.765625 147.21875 356.457031 166.34375 349.777344 186.59375 C 342.042969 210.046875 334.042969 234.300781 330.863281 256.449219 C 328.746094 271.222656 321.507812 284.679688 310.480469 294.347656 C 299.695312 303.796875 285.960938 309 271.796875 309 "/>
<path style=" stroke:none;fill-rule:nonzero;fill:rgb(50.196838%,50.196838%,50.196838%);fill-opacity:1;" d="M 168 42 C 168 56.910156 155.910156 69 141 69 C 126.089844 69 114 56.910156 114 42 C 114 27.089844 126.089844 15 141 15 C 155.910156 15 168 27.089844 168 42 "/>
<path style="fill:none;stroke-width:30;stroke-linecap:butt;stroke-linejoin:round;stroke:rgb(0%,0%,0%);stroke-opacity:1;stroke-miterlimit:10;" d="M 0 0 C 0 -14.910156 -12.089844 -27 -27 -27 C -41.910156 -27 -54 -14.910156 -54 0 C -54 14.910156 -41.910156 27 -27 27 C -12.089844 27 0 14.910156 0 0 Z M 0 0 " transform="matrix(1,0,0,-1,168,42)"/>
<path style=" stroke:none;fill-rule:nonzero;fill:rgb(50.196838%,50.196838%,50.196838%);fill-opacity:1;" d="M 294 42 C 294 56.910156 281.910156 69 267 69 C 252.089844 69 240 56.910156 240 42 C 240 27.089844 252.089844 15 267 15 C 281.910156 15 294 27.089844 294 42 "/>
<path style="fill:none;stroke-width:30;stroke-linecap:butt;stroke-linejoin:round;stroke:rgb(0%,0%,0%);stroke-opacity:1;stroke-miterlimit:10;" d="M 0 0 C 0 -14.910156 -12.089844 -27 -27 -27 C -41.910156 -27 -54 -14.910156 -54 0 C -54 14.910156 -41.910156 27 -27 27 C -12.089844 27 0 14.910156 0 0 Z M 0 0 " transform="matrix(1,0,0,-1,294,42)"/>
<path style=" stroke:none;fill-rule:nonzero;fill:rgb(50.196838%,50.196838%,50.196838%);fill-opacity:1;" d="M 393 96 C 393 110.910156 380.910156 123 366 123 C 351.089844 123 339 110.910156 339 96 C 339 81.089844 351.089844 69 366 69 C 380.910156 69 393 81.089844 393 96 "/>
<path style="fill:none;stroke-width:30;stroke-linecap:butt;stroke-linejoin:round;stroke:rgb(0%,0%,0%);stroke-opacity:1;stroke-miterlimit:10;" d="M 0 0 C 0 -14.910156 -12.089844 -27 -27 -27 C -41.910156 -27 -54 -14.910156 -54 0 C -54 14.910156 -41.910156 27 -27 27 C -12.089844 27 0 14.910156 0 0 Z M 0 0 " transform="matrix(1,0,0,-1,393,96)"/>
<path style=" stroke:none;fill-rule:nonzero;fill:rgb(50.196838%,50.196838%,50.196838%);fill-opacity:1;" d="M 69 96 C 69 110.910156 56.910156 123 42 123 C 27.089844 123 15 110.910156 15 96 C 15 81.089844 27.089844 69 42 69 C 56.910156 69 69 81.089844 69 96 "/>
<path style="fill:none;stroke-width:30;stroke-linecap:butt;stroke-linejoin:round;stroke:rgb(0%,0%,0%);stroke-opacity:1;stroke-miterlimit:10;" d="M 0 0 C 0 -14.910156 -12.089844 -27 -27 -27 C -41.910156 -27 -54 -14.910156 -54 0 C -54 14.910156 -41.910156 27 -27 27 C -12.089844 27 0 14.910156 0 0 Z M 0 0 " transform="matrix(1,0,0,-1,69,96)"/>
<path style="fill:none;stroke-width:30;stroke-linecap:butt;stroke-linejoin:round;stroke:rgb(0%,0%,0%);stroke-opacity:1;stroke-miterlimit:10;" d="M 0.00004375 0 L 197.695356 0 " transform="matrix(1,0,0,-1,105.1523,348)"/>
</g>
</svg>

<svg xmlns="http://www.w3.org/2000/svg" width="100" height="100" viewBox="-50 -90 498 528"><path d="M319.324 393H88.676c4.5-5.578 17.746-23.473 17.746-49.5 0-6.973-.953-28.68-17.746-49.5h230.648c-4.5 5.578-17.742 23.473-17.742 49.5 0 6.973.95 28.68 17.742 49.5" style="stroke:none;fill-rule:nonzero;fill:#4d4d4d;fill-opacity:1" transform="translate(0 -20)"/><path d="M140 393c3.563-10.281 11.434-25.773 12-45 .7-23.797-8.102-41.723-12-53-10.68 0-27.254-1-37.934-1l15.563 54-24.715 45Zm0 0" style="stroke:none;fill-rule:nonzero;fill:gray;fill-opacity:1" transform="translate(0 -20)"/><path d="M113.504 378h180.98c-5.523-14.016-6.632-26.637-6.632-34.5 0-13.32 2.828-24.914 6.644-34.5h-180.98c5.523 14.016 6.632 26.637 6.632 34.5 0 13.32-2.828 24.914-6.644 34.5m205.816 30H88.68c-5.399 0-10.293-3.453-12.512-8.824-2.223-5.375-1.356-11.668 2.21-16.094 5.345-6.629 14.313-20.586 14.313-39.582 0-8.152-1.859-24.14-14.316-39.586-3.563-4.422-4.43-10.719-2.207-16.09 2.219-5.37 7.113-8.824 12.512-8.824h230.64c5.399 0 10.293 3.453 12.512 8.824 2.223 5.375 1.36 11.668-2.21 16.094-5.345 6.629-14.313 20.586-14.313 39.582 0 8.152 1.859 24.14 14.312 39.586 3.57 4.422 4.434 10.719 2.211 16.09-2.219 5.37-7.113 8.824-12.512 8.824" style="stroke:none;fill-rule:nonzero;fill:#000;fill-opacity:1" transform="translate(0 -20)"/><path d="M91.102 254.3 55.73 127.333c3.239 1.95 50.434 69.043 74.133 54.168 18.852-11.832 14.93-84.18 16.477-112.5 8.297 26.242 36.086 93.75 57.66 93.75 21.574 0 49.363-67.508 57.66-93.75.524 3.23-7.828 97.156 24.711 112.5 18.586 8.766 59.883-51.512 65.902-54.168-6.168 35.207-28.808 83.805-34.972 126.797C314.02 277.012 294.652 294 271.793 294H136.582c-22.789 0-42.14-16.89-45.48-39.7" style="stroke:none;fill-rule:nonzero;fill:#4d4d4d;fill-opacity:1" transform="translate(0 -20)"/><path d="M86.828 159C153 192 93 279 230 279l-100.027 15c-11.192-10.469-34.067-34.773-43.145-72-6.59-27.016-3.2-49.723 0-63" style="stroke:none;fill-rule:nonzero;fill:gray;fill-opacity:1" transform="translate(0 -20)"/><path d="M203.703 147.773Zm.594 0Zm-81.395 20.809Zm-38.078 11.68 19.41 69.672c.184.656.325 1.324.422 2 2.262 15.43 15.989 27.066 31.926 27.066h135.215c15.984 0 29.719-11.691 31.941-27.191 3.395-23.657 11.149-47.887 18.903-71.43-14.899 13.738-28.77 20.996-41.707 14.89-16.641-7.843-27.207-28.601-31.418-61.707C233.488 163.708 219.02 177.75 204 177.75c-15.078 0-29.594-14.148-45.691-44.52l-.098-.19c-2.066 30.175-7.305 52.554-21.508 61.468-4.605 2.887-9.437 4.16-14.383 4.16-12.39 0-25.488-7.984-37.496-18.406M271.797 309H136.582c-14.125 0-27.832-5.176-38.602-14.578-10.75-9.379-17.918-22.363-20.265-36.66L42.598 131.703c-1.63-5.84.144-12.172 4.484-16.02 4.336-3.847 10.375-4.433 15.266-1.492 2.629 1.579 4.12 3.407 9.07 9.457 6.426 7.856 18.39 22.48 30.516 33.102 13.468 11.797 19.843 12.313 21.015 11.785.489-.508 4.574-5.36 6.977-27.066 1.777-16.094 2.004-35.356 2.183-50.836.106-8.813.192-16.426.528-22.528.386-7.144 5.343-12.992 11.836-13.964 6.484-.973 12.703 3.195 14.843 9.96 4.094 12.954 12.352 34.004 21.567 51.825 12.207 23.61 20.52 30.758 23.117 31.754 2.598-.996 10.91-8.145 23.117-31.754 9.215-17.82 17.473-38.871 21.567-51.824 2.043-6.461 7.828-10.586 14.062-10.055 6.234.539 11.352 5.621 12.438 12.351.324 2.008.265 3.45.078 8.223-2.903 73.414 10.297 89.258 15.691 92.633 1.535-.43 6.344-2.438 16.086-11.766 8.309-7.953 16.664-17.789 23.379-25.695 8.89-10.469 12.215-14.383 16.71-16.367 4.661-2.059 9.977-1.168 13.86 2.32 3.883 3.484 5.711 9.012 4.766 14.406-2.988 17.067-9.297 36.192-15.977 56.442-7.734 23.453-15.734 47.707-18.914 69.855-2.117 14.774-9.355 28.23-20.383 37.899C299.695 303.797 285.96 309 271.797 309" style="stroke:none;fill-rule:nonzero;fill:#000;fill-opacity:1" transform="translate(0 -20)"/><path d="M168 42c0 14.91-12.09 27-27 27s-27-12.09-27-27 12.09-27 27-27 27 12.09 27 27" style="stroke:none;fill-rule:nonzero;fill:gray;fill-opacity:1" transform="translate(0 -20)"/><path d="M0 0c0-14.91-12.09-27-27-27S-54-14.91-54 0s12.09 27 27 27S0 14.91 0 0Zm0 0" style="fill:none;stroke-width:30;stroke-linecap:butt;stroke-linejoin:round;stroke:#000;stroke-opacity:1;stroke-miterlimit:10" transform="matrix(1 0 0 -1 168 22)"/><path d="M294 42c0 14.91-12.09 27-27 27s-27-12.09-27-27 12.09-27 27-27 27 12.09 27 27" style="stroke:none;fill-rule:nonzero;fill:gray;fill-opacity:1" transform="translate(0 -20)"/><path d="M0 0c0-14.91-12.09-27-27-27S-54-14.91-54 0s12.09 27 27 27S0 14.91 0 0Zm0 0" style="fill:none;stroke-width:30;stroke-linecap:butt;stroke-linejoin:round;stroke:#000;stroke-opacity:1;stroke-miterlimit:10" transform="matrix(1 0 0 -1 294 22)"/><path d="M393 96c0 14.91-12.09 27-27 27s-27-12.09-27-27 12.09-27 27-27 27 12.09 27 27" style="stroke:none;fill-rule:nonzero;fill:gray;fill-opacity:1" transform="translate(0 -20)"/><path d="M0 0c0-14.91-12.09-27-27-27S-54-14.91-54 0s12.09 27 27 27S0 14.91 0 0Zm0 0" style="fill:none;stroke-width:30;stroke-linecap:butt;stroke-linejoin:round;stroke:#000;stroke-opacity:1;stroke-miterlimit:10" transform="matrix(1 0 0 -1 393 76)"/><path d="M69 96c0 14.91-12.09 27-27 27s-27-12.09-27-27 12.09-27 27-27 27 12.09 27 27" style="stroke:none;fill-rule:nonzero;fill:gray;fill-opacity:1" transform="translate(0 -20)"/><path d="M0 0c0-14.91-12.09-27-27-27S-54-14.91-54 0s12.09 27 27 27S0 14.91 0 0Zm0 0" style="fill:none;stroke-width:30;stroke-linecap:butt;stroke-linejoin:round;stroke:#000;stroke-opacity:1;stroke-miterlimit:10" transform="matrix(1 0 0 -1 69 76)"/><path d="M0 0h197.695" style="fill:none;stroke-width:30;stroke-linecap:butt;stroke-linejoin:round;stroke:#000;stroke-opacity:1;stroke-miterlimit:10" transform="matrix(1 0 0 -1 105.152 328)"/></svg>
